X: 32170
T: Peter Street
R: reel
M: 4/4
K: Dmajor
|:d~A3 defe|edBA ABBA|FGGF GAAG|ABdf aeef|
d~A3 defe|edBA ABBA|FGGF GAdf|1 aeef d2z2:|2 aeef dGB/c/d||
|:g3f gfeg|f2dA ~G3A|FAA/A/A GAFA|GAdc AAB/c/d|
g3f gfeg|f2dA ~G3A|FGGF GAdf|1 aeef d2 z2:|2 aeef d2zfe||

